src/svgs/piping-system.svg

<svg xmlns="http://www.w3.org/2000/svg" viewBox="0 0 24 24" width="512" height="512" aria-labelledby="itpiping-system-desc itpiping-system-title"><title id="itpiping-system-title">Piping System Icon</title><desc id="itpiping-system-desc">A picture depicting a piping system.</desc><path d="M15 9h-1V6a3 3 0 00-3-3H4V2H2v6h2V7h5a1 1 0 011 1v1H9v2h6zm-6 6h1v3a3 3 0 003 3h7v1h2v-6h-2v1h-5a1 1 0 01-1-1v-1h1v-2H9z"/></svg>

<svg xmlns="http://www.w3.org/2000/svg" viewBox="0 0 24 24"><path d="M15,9H14V6a3,3,0,0,0-3-3H4V2H2V8H4V7H9a1,1,0,0,1,1,1V9H9v2h6ZM9,15h1v3a3,3,0,0,0,3,3h7v1h2V16H20v1H15a1,1,0,0,1-1-1V15h1V13H9Z"/></svg>
